styles/1/Numix-Circle/48x48/apps/athena.svg

<?xml version="1.0" encoding="UTF-8" standalone="no"?>
<svg
   xmlns:dc="http://purl.org/dc/elements/1.1/"
   xmlns:cc="http://creativecommons.org/ns#"
   xmlns:rdf="http://www.w3.org/1999/02/22-rdf-syntax-ns#"
   xmlns:svg="http://www.w3.org/2000/svg"
   xmlns="http://www.w3.org/2000/svg"
   xmlns:sodipodi="http://sodipodi.sourceforge.net/DTD/sodipodi-0.dtd"
   xmlns:inkscape="http://www.inkscape.org/namespaces/inkscape"
   viewBox="0 0 48 48"
   id="svg3062"
   version="1.1"
   inkscape:version="0.91 r"
   width="100%"
   height="100%"
   sodipodi:docname="athena.svg">
  <metadata
     id="metadata3145">
    <rdf:RDF>
      <cc:Work
         rdf:about="">
        <dc:format>image/svg+xml</dc:format>
        <dc:type
           rdf:resource="http://purl.org/dc/dcmitype/StillImage" />
      </cc:Work>
    </rdf:RDF>
  </metadata>
  <sodipodi:namedview
     pagecolor="#ffffff"
     bordercolor="#666666"
     borderopacity="1"
     objecttolerance="10"
     gridtolerance="10"
     guidetolerance="10"
     inkscape:pageopacity="0"
     inkscape:pageshadow="2"
     inkscape:window-width="1280"
     inkscape:window-height="998"
     id="namedview3143"
     showgrid="false"
     inkscape:zoom="6.9532165"
     inkscape:cx="12.549798"
     inkscape:cy="27.63425"
     inkscape:window-x="0"
     inkscape:window-y="0"
     inkscape:window-maximized="1"
     inkscape:current-layer="svg3062" />
  <defs
     id="defs3064">
    <linearGradient
       id="linearGradient3764"
       x1="1"
       x2="47"
       gradientUnits="userSpaceOnUse"
       gradientTransform="matrix(0,-1,1,0,-1.5e-6,47.999998)">
      <stop
         stop-color="#b44732"
         stop-opacity="1"
         id="stop3067" />
      <stop
         offset="1"
         stop-color="#c44e36"
         stop-opacity="1"
         id="stop3069" />
    </linearGradient>
  </defs>
  <g
     id="g3081">
    <path
       d="m 36.31 5 c 5.859 4.062 9.688 10.831 9.688 18.5 c 0 12.426 -10.07 22.5 -22.5 22.5 c -7.669 0 -14.438 -3.828 -18.5 -9.688 c 1.037 1.822 2.306 3.499 3.781 4.969 c 4.085 3.712 9.514 5.969 15.469 5.969 c 12.703 0 23 -10.298 23 -23 c 0 -5.954 -2.256 -11.384 -5.969 -15.469 c -1.469 -1.475 -3.147 -2.744 -4.969 -3.781 z m 4.969 3.781 c 3.854 4.113 6.219 9.637 6.219 15.719 c 0 12.703 -10.297 23 -23 23 c -6.081 0 -11.606 -2.364 -15.719 -6.219 c 4.16 4.144 9.883 6.719 16.219 6.719 c 12.703 0 23 -10.298 23 -23 c 0 -6.335 -2.575 -12.06 -6.719 -16.219 z"
       opacity="0.05"
       id="path3083" />
    <path
       d="m 41.28 8.781 c 3.712 4.085 5.969 9.514 5.969 15.469 c 0 12.703 -10.297 23 -23 23 c -5.954 0 -11.384 -2.256 -15.469 -5.969 c 4.113 3.854 9.637 6.219 15.719 6.219 c 12.703 0 23 -10.298 23 -23 c 0 -6.081 -2.364 -11.606 -6.219 -15.719 z"
       opacity="0.1"
       id="path3085" />
    <path
       d="m 31.25 2.375 c 8.615 3.154 14.75 11.417 14.75 21.13 c 0 12.426 -10.07 22.5 -22.5 22.5 c -9.708 0 -17.971 -6.135 -21.12 -14.75 a 23 23 0 0 0 44.875 -7 a 23 23 0 0 0 -16 -21.875 z"
       opacity="0.2"
       id="path3087" />
  </g>
  <g
     id="g3089">
    <path
       d="m 24 1 c 12.703 0 23 10.297 23 23 c 0 12.703 -10.297 23 -23 23 -12.703 0 -23 -10.297 -23 -23 0 -12.703 10.297 -23 23 -23 z"
       fill="url(#linearGradient3764)"
       fill-opacity="1"
       id="path3091" />
  </g>
  <g
     id="g3093" />
  <path
     style="opacity:0.1;fill:#000000;fill-opacity:1;fill-rule:nonzero;stroke:none"
     d="M 13.8125 16 C 13.371574 16.05099 12.996999 16.464595 13 16.9375 L 13 34.03125 C 13.000057 34.53115 13.434329 35 13.90625 35 L 36 35 C 36.472925 35 37 34.4999 37 34 L 37 19 C 37 18.5001 36.472925 18 36 18 L 27 18 L 27 17 C 26.9987 16.35213 26.550909 16 26 16 L 13.8125 16 z M 24.96875 20.03125 L 25.6875 21.625 L 25.5 22.0625 C 26.657 22.1415 26.4375 22.375 26.4375 22.375 C 26.4375 22.375 27.75 22.6245 27.75 22.8125 C 28.011 22.9415 28.28125 23.1245 28.53125 23.3125 C 31.86725 27.8045 28.30075 28.8355 29.09375 31.4375 C 29.26975 31.9955 30 32.96875 30 32.96875 C 30 32.96875 28.5355 33.16375 27.9375 31.46875 C 27.4495 30.09775 29.102 27.33175 27.875 26.09375 C 26.144 24.33975 24.85925 27.96875 25.40625 28.46875 C 25.95725 28.96875 25.8125 29.09375 25.8125 29.09375 L 25 30.75 L 24.15625 29.09375 C 24.15625 29.09375 24.04275 28.96875 24.59375 28.46875 C 25.13675 27.96875 23.82775 24.34375 22.09375 26.09375 C 20.87175 27.32775 22.51525 30.09775 22.03125 31.46875 C 21.43325 33.16475 20 32.96875 20 32.96875 C 20 32.96875 20.703 32.0035 20.875 31.4375 C 21.668 28.8315 18.0975 27.8005 21.4375 23.3125 C 21.6875 23.1175 21.95275 22.9415 22.21875 22.8125 C 22.21875 22.6285 23.5625 22.375 23.5625 22.375 C 23.5625 22.375 23.31675 22.1405 24.46875 22.0625 L 24.28125 21.625 L 24.96875 20.03125 z "
     id="path45" />
  <g
     id="g3139">
    <path
       d="m 40.03 7.531 c 3.712 4.084 5.969 9.514 5.969 15.469 0 12.703 -10.297 23 -23 23 c -5.954 0 -11.384 -2.256 -15.469 -5.969 4.178 4.291 10.01 6.969 16.469 6.969 c 12.703 0 23 -10.298 23 -23 0 -6.462 -2.677 -12.291 -6.969 -16.469 z"
       opacity="0.1"
       id="path3141" />
  </g>
  <path
     style="fill:#ececec;fill-opacity:1;fill-rule:nonzero;stroke:none"
     d="M 12.8125 15 C 12.371575 15.05096 11.997001 15.496148 12 15.96875 L 12 33.03125 C 12.000058 33.53083 12.434329 34 12.90625 34 L 35 34 C 35.472922 34 36 33.499579 36 33 L 36 18.03125 C 36 17.531671 35.472922 17.03125 35 17.03125 L 26 17.03125 L 26 16 C 25.9987 15.352546 25.550907 15 25 15 L 12.8125 15 z M 24 19 L 24.6875 20.625 L 24.5 21.0625 C 25.657 21.1415 25.4375 21.375 25.4375 21.375 C 25.4375 21.375 26.75 21.6245 26.75 21.8125 C 27.011 21.9415 27.28125 22.1245 27.53125 22.3125 C 30.86725 26.8045 27.30075 27.8355 28.09375 30.4375 C 28.26975 30.9955 29 31.96875 29 31.96875 C 29 31.96875 27.5355 32.16375 26.9375 30.46875 C 26.4495 29.09775 28.102 26.33175 26.875 25.09375 C 25.144 23.33975 23.85925 26.96875 24.40625 27.46875 C 24.95725 27.96875 24.8125 28.09375 24.8125 28.09375 L 24 29.75 L 23.15625 28.09375 C 23.15625 28.09375 23.04275 27.96875 23.59375 27.46875 C 24.13675 26.96875 22.82775 23.34375 21.09375 25.09375 C 19.87175 26.32775 21.51525 29.09775 21.03125 30.46875 C 20.43325 32.16475 19 31.96875 19 31.96875 C 19 31.96875 19.703 31.0035 19.875 30.4375 C 20.668 27.8315 17.0975 26.8005 20.4375 22.3125 C 20.6875 22.1175 20.95275 21.9415 21.21875 21.8125 C 21.21875 21.6285 22.5625 21.375 22.5625 21.375 C 22.5625 21.375 22.31675 21.1405 23.46875 21.0625 L 23.28125 20.625 L 24 19 z "
     id="path55" />
</svg>

<svg xmlns="http://www.w3.org/2000/svg" viewBox="0 0 48 48">
 <defs>
  <linearGradient id="linearGradient3764" x1="1" x2="47" gradientUnits="userSpaceOnUse" gradientTransform="matrix(0,-1,1,0,-1.5e-6,47.999998)">
   <stop style="stop-color:#b44732;stop-opacity:1"/>
   <stop offset="1" style="stop-color:#c44e36;stop-opacity:1"/>
  </linearGradient>
 </defs>
 <g>
  <path d="m 36.31 5 c 5.859 4.062 9.688 10.831 9.688 18.5 c 0 12.426 -10.07 22.5 -22.5 22.5 c -7.669 0 -14.438 -3.828 -18.5 -9.688 c 1.037 1.822 2.306 3.499 3.781 4.969 c 4.085 3.712 9.514 5.969 15.469 5.969 c 12.703 0 23 -10.298 23 -23 c 0 -5.954 -2.256 -11.384 -5.969 -15.469 c -1.469 -1.475 -3.147 -2.744 -4.969 -3.781 z m 4.969 3.781 c 3.854 4.113 6.219 9.637 6.219 15.719 c 0 12.703 -10.297 23 -23 23 c -6.081 0 -11.606 -2.364 -15.719 -6.219 c 4.16 4.144 9.883 6.719 16.219 6.719 c 12.703 0 23 -10.298 23 -23 c 0 -6.335 -2.575 -12.06 -6.719 -16.219 z" style="opacity:0.05"/>
  <path d="m 41.28 8.781 c 3.712 4.085 5.969 9.514 5.969 15.469 c 0 12.703 -10.297 23 -23 23 c -5.954 0 -11.384 -2.256 -15.469 -5.969 c 4.113 3.854 9.637 6.219 15.719 6.219 c 12.703 0 23 -10.298 23 -23 c 0 -6.081 -2.364 -11.606 -6.219 -15.719 z" style="opacity:0.1"/>
  <path d="m 31.25 2.375 c 8.615 3.154 14.75 11.417 14.75 21.13 c 0 12.426 -10.07 22.5 -22.5 22.5 c -9.708 0 -17.971 -6.135 -21.12 -14.75 a 23 23 0 0 0 44.875 -7 a 23 23 0 0 0 -16 -21.875 z" style="opacity:0.2"/>
 </g>
 <g>
  <path d="m 24 1 c 12.703 0 23 10.297 23 23 c 0 12.703 -10.297 23 -23 23 -12.703 0 -23 -10.297 -23 -23 0 -12.703 10.297 -23 23 -23 z" style="fill:url(#linearGradient3764);fill-opacity:1"/>
 </g>
 <path d="m 13.813 16 c -0.441 0.051 -0.816 0.465 -0.813 0.938 l 0 17.09 c 0 0.5 0.434 0.969 0.906 0.969 l 22.09 0 c 0.473 0 1 -0.5 1 -1 l 0 -15 c 0 -0.5 -0.527 -1 -1 -1 l -9 0 l 0 -1 c 0 -0.648 -0.449 -1 -1 -1 l -12.188 0 z m 11.156 4.03 l 0.719 1.594 l -0.188 0.438 c 1.157 0.079 0.938 0.313 0.938 0.313 c 0 0 1.313 0.25 1.313 0.438 c 0.261 0.129 0.531 0.312 0.781 0.5 c 3.336 4.492 -0.23 5.523 0.563 8.125 c 0.176 0.558 0.906 1.531 0.906 1.531 c 0 0 -1.465 0.195 -2.063 -1.5 c -0.488 -1.371 1.165 -4.137 -0.063 -5.375 c -1.731 -1.754 -3.02 1.875 -2.469 2.375 c 0.551 0.5 0.406 0.625 0.406 0.625 l -0.813 1.656 l -0.844 -1.656 c 0 0 -0.113 -0.125 0.438 -0.625 c 0.543 -0.5 -0.766 -4.125 -2.5 -2.375 c -1.222 1.234 0.422 4 -0.063 5.375 c -0.598 1.696 -2.031 1.5 -2.031 1.5 c 0 0 0.703 -0.965 0.875 -1.531 c 0.793 -2.606 -2.777 -3.637 0.563 -8.125 c 0.25 -0.195 0.515 -0.371 0.781 -0.5 c 0 -0.184 1.344 -0.438 1.344 -0.438 c 0 0 -0.246 -0.235 0.906 -0.313 l -0.188 -0.438 l 0.688 -1.594 z" style="fill:#000;opacity:0.1;fill-opacity:1;stroke:none;fill-rule:nonzero"/>
 <g>
  <path d="m 40.03 7.531 c 3.712 4.084 5.969 9.514 5.969 15.469 0 12.703 -10.297 23 -23 23 c -5.954 0 -11.384 -2.256 -15.469 -5.969 4.178 4.291 10.01 6.969 16.469 6.969 c 12.703 0 23 -10.298 23 -23 0 -6.462 -2.677 -12.291 -6.969 -16.469 z" style="opacity:0.1"/>
 </g>
 <path d="m 12.813 15 c -0.441 0.051 -0.815 0.496 -0.813 0.969 l 0 17.06 c 0 0.5 0.434 0.969 0.906 0.969 l 22.09 0 c 0.473 0 1 -0.5 1 -1 l 0 -14.969 c 0 -0.5 -0.527 -1 -1 -1 l -9 0 l 0 -1.031 c 0 -0.647 -0.449 -1 -1 -1 l -12.188 0 z m 11.188 4 l 0.688 1.625 l -0.188 0.438 c 1.157 0.079 0.938 0.313 0.938 0.313 c 0 0 1.313 0.25 1.313 0.438 c 0.261 0.129 0.531 0.312 0.781 0.5 c 3.336 4.492 -0.23 5.523 0.563 8.125 c 0.176 0.558 0.906 1.531 0.906 1.531 c 0 0 -1.465 0.195 -2.063 -1.5 c -0.488 -1.371 1.165 -4.137 -0.063 -5.375 c -1.731 -1.754 -3.02 1.875 -2.469 2.375 c 0.551 0.5 0.406 0.625 0.406 0.625 l -0.813 1.656 l -0.844 -1.656 c 0 0 -0.113 -0.125 0.438 -0.625 c 0.543 -0.5 -0.766 -4.125 -2.5 -2.375 c -1.222 1.234 0.422 4 -0.063 5.375 c -0.598 1.696 -2.031 1.5 -2.031 1.5 c 0 0 0.703 -0.965 0.875 -1.531 c 0.793 -2.606 -2.777 -3.637 0.563 -8.125 c 0.25 -0.195 0.515 -0.371 0.781 -0.5 c 0 -0.184 1.344 -0.438 1.344 -0.438 c 0 0 -0.246 -0.235 0.906 -0.313 l -0.188 -0.438 l 0.719 -1.625 z" style="fill:#ececec;fill-opacity:1;stroke:none;fill-rule:nonzero"/>
</svg>
